assets/svg/action_wallet_faceid.svg

<svg width="80" height="80" viewBox="0 0 80 80" fill="none" xmlns="http://www.w3.org/2000/svg">
<rect x="27.5" y="24" width="34" height="34" rx="9" fill="#E1EAF8"/>
<path d="M55.1984 60.9082V70.5223C55.1984 72.866 53.2984 74.766 50.9547 74.766H32.1953C30.6859 74.766 29.4609 75.991 29.4609 77.5004H50.9547C54.8094 77.5004 57.9328 74.3754 57.9328 70.5223V60.9082H55.1984Z" fill="#E1EAF8"/>
<path d="M44.9438 8.05313H33.4609C32.5203 8.05313 31.6844 7.45156 31.3859 6.55781L30.0312 2.5H48.3719L47.0187 6.55781C46.8732 6.99307 46.5946 7.37159 46.2223 7.63991C45.8499 7.90823 45.4027 8.05277 44.9438 8.05313Z" fill="#E1EAF8"/>
<path d="M57.3859 70.5203V62C57.3859 61.698 57.6308 61.4531 57.9328 61.4531C58.2348 61.4531 58.4797 61.698 58.4797 62V70.5203C58.4797 74.6687 55.1047 78.0453 50.9547 78.0453H27.4469C23.2984 78.0453 19.9219 74.6703 19.9219 70.5203V61.7891C19.9219 61.4875 20.1672 61.2422 20.4687 61.2422C20.7703 61.2422 21.0156 61.4875 21.0156 61.7891V70.5203C21.0156 74.0656 23.9 76.9516 27.4469 76.9516H50.9547C54.5 76.9516 57.3859 74.0672 57.3859 70.5203Z" fill="#9A9A9A"/>
<path d="M20.4688 58.0844C20.7703 58.0844 21.0156 57.8391 21.0156 57.5375V9.47813C21.0156 5.93125 23.9016 3.04688 27.4469 3.04688H50.9547C54.5016 3.04688 57.3859 5.93281 57.3859 9.47813V19.7938C57.3859 20.0953 57.6313 20.3406 57.9328 20.3406C58.2344 20.3406 58.4797 20.0953 58.4797 19.7938V9.47813C58.4797 5.32812 55.1031 1.95312 50.9547 1.95312H27.4469C23.2969 1.95312 19.9219 5.32969 19.9219 9.47813V57.5375C19.9219 57.8391 20.1672 58.0844 20.4688 58.0844Z" fill="#9A9A9A"/>
<path d="M66.0908 45.3048C66.0615 45.1641 66.0873 45.0119 66.1755 44.8834C66.2161 44.8241 66.268 44.7734 66.3283 44.7343C66.3885 44.6951 66.4559 44.6682 66.5266 44.6551C66.5973 44.642 66.6698 44.643 66.7401 44.658C66.8104 44.6731 66.877 44.7018 66.9362 44.7426L70.289 47.0484C70.537 47.2202 70.6012 47.5595 70.4298 47.8091C70.2583 48.0586 69.9186 48.1213 69.669 47.9499L66.3178 45.6438C66.1952 45.5608 66.1182 45.4364 66.0908 45.3048ZM67.6302 33.0112C67.5742 32.742 67.7292 32.4671 67.9967 32.3795L71.8679 31.1268C72.1549 31.0335 72.4638 31.1911 72.5571 31.4781C72.6504 31.7651 72.4928 32.074 72.2058 32.1673L68.3346 33.42C68.1966 33.4647 68.0465 33.4528 67.9173 33.387C67.7881 33.3211 67.6903 33.2066 67.6454 33.0687C67.6385 33.051 67.6344 33.0311 67.6302 33.0112Z" fill="#0166FF"/>
<path d="M7.64286 32.8658C7.73488 32.8901 7.8296 32.8878 7.91573 32.8651C8.01048 32.8403 8.09683 32.7905 8.16577 32.7209C8.23472 32.6513 8.28372 32.5645 8.30766 32.4695C8.381 32.1772 8.20413 31.8796 7.91139 31.8047L3.96741 30.8035C3.67507 30.7302 3.37746 30.907 3.30262 31.1998C3.26742 31.3404 3.28934 31.4893 3.36359 31.6139C3.43785 31.7385 3.55839 31.8286 3.69889 31.8646L7.64286 32.8658Z" fill="#0166FF"/>
<path d="M6.96765 47.2534C7.10626 47.4302 7.3326 47.4983 7.53659 47.4446C7.60762 47.4259 7.67506 47.3936 7.7351 47.3455L10.9312 44.8291C11.1696 44.642 11.2101 44.2985 11.0233 44.0616C10.8362 43.8233 10.4927 43.7828 10.2559 43.9695L7.05977 46.4859C6.82142 46.6731 6.78092 47.0166 6.96765 47.2534Z" fill="#0166FF"/>
<path d="M39.5 32H37.5C36.9696 32 36.4609 32.2107 36.0858 32.5858C35.7107 32.9609 35.5 33.4696 35.5 34V36M49.5 32H51.5C52.0304 32 52.5391 32.2107 52.9142 32.5858C53.2893 32.9609 53.5 33.4696 53.5 34V36M48.5 37V39M40.5 37V39M41.5 45C41.5 45 42.5 46 44.5 46C46.5 46 47.5 45 47.5 45M44.5 37V42H43.5M39.5 50H37.5C36.9696 50 36.4609 49.7893 36.0858 49.4142C35.7107 49.0391 35.5 48.5304 35.5 48V46M49.5 50H51.5C52.0304 50 52.5391 49.7893 52.9142 49.4142C53.2893 49.0391 53.5 48.5304 53.5 48V46" stroke="#0166FF" stroke-width="1.5" stroke-linecap="round" stroke-linejoin="round"/>
<path d="M26.5 14H44.5" stroke="#E1EAF8" stroke-width="1.5" stroke-linecap="round"/>
<path d="M26.5 18H40.5" stroke="#E1EAF8" stroke-width="1.5" stroke-linecap="round"/>
</svg>

<svg xmlns="http://www.w3.org/2000/svg" width="80" height="80" fill="none"><rect width="34" height="34" x="27.5" y="24" fill="#E1EAF8" rx="9"/><path fill="#E1EAF8" d="M55.198 60.908v9.614c0 2.344-1.9 4.244-4.243 4.244h-18.76a2.735 2.735 0 0 0-2.734 2.734h21.494a6.98 6.98 0 0 0 6.978-6.978v-9.614zM44.944 8.053H33.46c-.94 0-1.777-.601-2.075-1.495L30.03 2.5h18.34L47.02 6.558a2.19 2.19 0 0 1-2.075 1.495"/><path fill="#9A9A9A" d="M57.386 70.52V62a.547.547 0 0 1 1.094 0v8.52c0 4.149-3.375 7.525-7.525 7.525H27.447c-4.149 0-7.525-3.375-7.525-7.525v-8.73a.547.547 0 0 1 1.094 0v8.73a6.44 6.44 0 0 0 6.43 6.432h23.509a6.44 6.44 0 0 0 6.43-6.432M20.469 58.084a.547.547 0 0 0 .547-.547V9.479a6.44 6.44 0 0 1 6.43-6.431h23.509a6.44 6.44 0 0 1 6.43 6.431v10.316a.548.548 0 0 0 1.095 0V9.478c0-4.15-3.377-7.525-7.525-7.525H27.447c-4.15 0-7.525 3.377-7.525 7.525v48.06c0 .301.245.546.547.546"/><path fill="#0166FF" d="M66.09 45.305a.546.546 0 0 1 .846-.562l3.353 2.305a.548.548 0 0 1-.62.902l-3.351-2.306a.54.54 0 0 1-.227-.34m1.54-12.294a.55.55 0 0 1 .367-.632l3.87-1.252a.547.547 0 0 1 .339 1.04l-3.871 1.253a.55.55 0 0 1-.69-.351q-.009-.027-.015-.058M7.643 32.866a.54.54 0 0 0 .523-.145.547.547 0 0 0-.255-.916l-3.944-1.001a.549.549 0 0 0-.603.81.55.55 0 0 0 .335.25zM6.968 47.253a.547.547 0 0 0 .767.093l3.196-2.517a.546.546 0 1 0-.675-.86L7.06 46.487a.546.546 0 0 0-.092.767"/><path stroke="#0166FF" stroke-linecap="round" stroke-linejoin="round" stroke-width="1.5" d="M39.5 32h-2a2 2 0 0 0-2 2v2m14-4h2a2 2 0 0 1 2 2v2m-5 1v2m-8-2v2m1 6s1 1 3 1 3-1 3-1m-3-8v5h-1m-4 8h-2a2 2 0 0 1-2-2v-2m14 4h2a2 2 0 0 0 2-2v-2"/><path stroke="#E1EAF8" stroke-linecap="round" stroke-width="1.5" d="M26.5 14h18M26.5 18h14"/></svg>
